modules/hawcons-filled/icons/inbox-filled.svg

<?xml version="1.0" encoding="UTF-8" standalone="no"?>
<svg width="32px" height="32px" viewBox="0 0 32 32" version="1.1" xmlns="http://www.w3.org/2000/svg" xmlns:xlink="http://www.w3.org/1999/xlink" xmlns:sketch="http://www.bohemiancoding.com/sketch/ns">
    <!-- Generator: Sketch 3.0.3 (7891) - http://www.bohemiancoding.com/sketch -->
    <title>icon 133 inbox filled</title>
    <desc>Created with Sketch.</desc>
    <defs></defs>
    <g id="Page-1" stroke="none" stroke-width="1" fill="none" fill-rule="evenodd" sketch:type="MSPage">
        <g id="icon-133-inbox-filled" sketch:type="MSArtboardGroup" fill="#929292">
            <path d="M12,14 L5.22497559,14 L9.59997559,7 L23.4000244,7 L27.7750244,14 L21,14 L21,15.9951185 C21,17.1061002 20.1057373,18 19.0026083,18 L13.9973917,18 C12.8958578,18 12,17.102384 12,15.9951185 L12,14 L12,14 Z M4,14 L9,6 L24,6 L29,14 L29,15 L29,23 L4,23 L4,14 L4,14 Z M11,8 L10.4000244,9 L22.5999756,9 L22,8 L11,8 L11,8 Z M9.69995117,10 L9.09997559,11 L23.9000244,11 L23.3000488,10 L9.69995117,10 L9.69995117,10 Z M8.5,12 L7.90002441,13 L25.0999756,13 L24.5,12 L8.5,12 L8.5,12 Z" id="inbox-filled" sketch:type="MSShapeGroup"></path>
        </g>
    </g>
</svg>

<svg width="32" height="32" viewBox="0 0 32 32" xmlns="http://www.w3.org/2000/svg"><path d="M12 14H5.225L9.6 7h13.8l4.375 7H21v1.995A1.999 1.999 0 0 1 19.003 18h-5.006A2.002 2.002 0 0 1 12 15.995V14zm-8 0l5-8h15l5 8v9H4v-9zm7-6l-.6 1h12.2L22 8H11zm-1.3 2l-.6 1h14.8l-.6-1H9.7zm-1.2 2l-.6 1h17.2l-.6-1h-16z" fill="#929292" fill-rule="evenodd"/></svg>
